icons/circle/48/amule.svg

<svg xmlns="http://www.w3.org/2000/svg" viewBox="0 0 48 48">
  <defs>
    <linearGradient id="a" x1="1" x2="47" gradientUnits="userSpaceOnUse" gradientTransform="rotate(-90 24 24)">
      <stop stop-color="#ec9b28"/>
      <stop offset="1" stop-color="#eea53a"/>
    </linearGradient>
  </defs>
  <path d="M36.31 5c5.859 4.062 9.688 10.831 9.688 18.5 0 12.426-10.07 22.5-22.5 22.5-7.669 0-14.438-3.828-18.5-9.688a23.24 23.24 0 0 0 3.781 4.969 22.923 22.923 0 0 0 15.469 5.969c12.703 0 23-10.298 23-23a22.92 22.92 0 0 0-5.969-15.469A23.216 23.216 0 0 0 36.31 5zm4.969 3.781A22.911 22.911 0 0 1 47.498 24.5c0 12.703-10.297 23-23 23a22.909 22.909 0 0 1-15.719-6.219C12.939 45.425 18.662 48 24.998 48c12.703 0 23-10.298 23-23 0-6.335-2.575-12.06-6.719-16.219z" opacity=".05"/>
  <path d="M41.28 8.781a22.923 22.923 0 0 1 5.969 15.469c0 12.703-10.297 23-23 23A22.92 22.92 0 0 1 8.78 41.281 22.911 22.911 0 0 0 24.499 47.5c12.703 0 23-10.298 23-23A22.909 22.909 0 0 0 41.28 8.781z" opacity=".1"/>
  <path d="M31.25 2.375C39.865 5.529 46 13.792 46 23.505c0 12.426-10.07 22.5-22.5 22.5-9.708 0-17.971-6.135-21.12-14.75a23 23 0 0 0 44.875-7 23 23 0 0 0-16-21.875z" opacity=".2"/>
  <path d="M24 1c12.703 0 23 10.297 23 23S36.703 47 24 47 1 36.703 1 24 11.297 1 24 1z" fill="url(#a)"/>
  <path d="M25 11a3 3 0 0 0-3 3 3 3 0 0 0 2 2.824v2.256A7 7 0 0 0 18 26a7 7 0 0 0 .447 2.438l-2.445 1.332a3 3 0 0 0-3.502-.367 3 3 0 0 0-1.098 4.098 3 3 0 0 0 4.098 1.098 3 3 0 0 0 1.459-3.074l2.445-1.332A7 7 0 0 0 25 33.002a7 7 0 0 0 5.598-2.809l2.441 1.332a3 3 0 0 0 1.461 3.074 3 3 0 0 0 4.098-1.098 3 3 0 0 0-1.098-4.098 3 3 0 0 0-3.504.367l-2.439-1.33A7 7 0 0 0 32 26.001a7 7 0 0 0-6-6.922v-2.252a3 3 0 0 0 2-2.826 3 3 0 0 0-3-3zm.969 10.867c.734.004 1.494.163 2.061.658.574.502.707 1.345.461 2.039-.295.831-1.138 1.27-1.947 1.48-1.175.306-2.389.328-3.594.318-.122.423-.112.864-.088 1.299.033.603.375 1.246 1.01 1.381.754.161 1.532.033 2.287-.088.369-.059.872-.548 1.123-.244.24.29-.004.836-.289 1.055-.442.339-1.044.39-1.592.457a6.37 6.37 0 0 1-2.215-.098 2.294 2.294 0 0 1-1.729-1.994c-.14-1.597.226-3.275 1.172-4.584.76-1.053 2.038-1.686 3.34-1.68zm-.084 1.1a2.729 2.729 0 0 0-1.549.504c-.594.436-.919 1.154-1.131 1.844 1.01-.008 2.033.036 3.01-.266.556-.171 1.082-.711.941-1.318-.128-.556-.751-.778-1.273-.764z" opacity=".1"/>
  <g>
    <path d="M40.03 7.531A22.922 22.922 0 0 1 45.999 23c0 12.703-10.297 23-23 23A22.92 22.92 0 0 1 7.53 40.031C11.708 44.322 17.54 47 23.999 47c12.703 0 23-10.298 23-23 0-6.462-2.677-12.291-6.969-16.469z" opacity=".1"/>
  </g>
  <g fill="#f9f9f9">
    <path d="M24 18a7 7 0 0 0-7 7 7 7 0 0 0 7 7 7 7 0 0 0 7-7 7 7 0 0 0-7-7zm.969 2.867c.734.004 1.494.163 2.061.658.574.505.706 1.346.46 2.039-.29.832-1.138 1.27-1.947 1.476-1.175.311-2.393.333-3.594.323-.122.423-.112.867-.088 1.299.034.598.379 1.246 1.01 1.378.755.16 1.532.04 2.289-.085.368-.059.87-.548 1.12-.244.241.289 0 .836-.288 1.055-.442.334-1.044.394-1.592.454a6.56 6.56 0 0 1-2.21-.09 2.3 2.3 0 0 1-1.733-2c-.14-1.596.226-3.274 1.172-4.583.76-1.053 2.038-1.687 3.34-1.68zm-.084 1.1c-.557.015-1.102.173-1.549.504-.594.436-.919 1.153-1.126 1.843 1-.008 2.03.036 3.01-.264.553-.172 1.078-.712.94-1.32-.13-.56-.753-.777-1.275-.763z"/>
    <circle r="3" cy="13" cx="24"/>
    <path d="M23 14h2v6h-2z"/>
    <circle r="3" cy="12.474" cx="24.304" transform="rotate(-120 24 25)"/>
    <circle cx="23.696" cy="12.474" r="3" transform="rotate(120 24 25)"/>
    <path d="M19 26.59l-6.479 3.533.957 1.754 5.521-3.01v-2.275zm10 0v2.275l5.521 3.01.957-1.754-6.479-3.533z" white-space="normal" solid-color="#000000" color="#000" fill-rule="evenodd"/>
  </g>
</svg>

<svg xmlns="http://www.w3.org/2000/svg" viewBox="0 0 48 48">
 <defs>
  <linearGradient id="linearGradient3764" x1="1" x2="47" gradientUnits="userSpaceOnUse" gradientTransform="matrix(0,-1,1,0,-1.5e-6,47.999998)">
   <stop style="stop-color:#ec9b28;stop-opacity:1"/>
   <stop offset="1" style="stop-color:#eea53a;stop-opacity:1"/>
  </linearGradient>
 </defs>
 <g>
  <path d="m 36.31 5 c 5.859 4.062 9.688 10.831 9.688 18.5 c 0 12.426 -10.07 22.5 -22.5 22.5 c -7.669 0 -14.438 -3.828 -18.5 -9.688 c 1.037 1.822 2.306 3.499 3.781 4.969 c 4.085 3.712 9.514 5.969 15.469 5.969 c 12.703 0 23 -10.298 23 -23 c 0 -5.954 -2.256 -11.384 -5.969 -15.469 c -1.469 -1.475 -3.147 -2.744 -4.969 -3.781 z m 4.969 3.781 c 3.854 4.113 6.219 9.637 6.219 15.719 c 0 12.703 -10.297 23 -23 23 c -6.081 0 -11.606 -2.364 -15.719 -6.219 c 4.16 4.144 9.883 6.719 16.219 6.719 c 12.703 0 23 -10.298 23 -23 c 0 -6.335 -2.575 -12.06 -6.719 -16.219 z" style="opacity:0.05"/>
  <path d="m 41.28 8.781 c 3.712 4.085 5.969 9.514 5.969 15.469 c 0 12.703 -10.297 23 -23 23 c -5.954 0 -11.384 -2.256 -15.469 -5.969 c 4.113 3.854 9.637 6.219 15.719 6.219 c 12.703 0 23 -10.298 23 -23 c 0 -6.081 -2.364 -11.606 -6.219 -15.719 z" style="opacity:0.1"/>
  <path d="m 31.25 2.375 c 8.615 3.154 14.75 11.417 14.75 21.13 c 0 12.426 -10.07 22.5 -22.5 22.5 c -9.708 0 -17.971 -6.135 -21.12 -14.75 a 23 23 0 0 0 44.875 -7 a 23 23 0 0 0 -16 -21.875 z" style="opacity:0.2"/>
 </g>
 <g>
  <path d="m 24 1 c 12.703 0 23 10.297 23 23 c 0 12.703 -10.297 23 -23 23 -12.703 0 -23 -10.297 -23 -23 0 -12.703 10.297 -23 23 -23 z" style="fill:url(#linearGradient3764);fill-opacity:1"/>
 </g>
 <g>
  <g>
   <g transform="translate(1,1)">
    <g style="opacity:0.1">
     <!-- color: #eea53a -->
    </g>
   </g>
  </g>
 </g>
 <path d="m 25 11 a 3 3 0 0 0 -3 3 3 3 0 0 0 2 2.824 l 0 2.256 a 7 7 0 0 0 -6 6.92 7 7 0 0 0 0.447 2.438 l -2.445 1.332 a 3 3 0 0 0 -3.502 -0.367 3 3 0 0 0 -1.098 4.098 3 3 0 0 0 4.098 1.098 3 3 0 0 0 1.459 -3.074 l 2.445 -1.332 a 7 7 0 0 0 5.596 2.809 7 7 0 0 0 5.598 -2.809 l 2.441 1.332 a 3 3 0 0 0 1.461 3.074 3 3 0 0 0 4.098 -1.098 3 3 0 0 0 -1.098 -4.098 3 3 0 0 0 -3.504 0.367 l -2.439 -1.33 a 7 7 0 0 0 0.443 -2.439 7 7 0 0 0 -6 -6.922 l 0 -2.252 a 3 3 0 0 0 2 -2.826 3 3 0 0 0 -3 -3 z m 0.969 10.867 c 0.734 0.004 1.494 0.163 2.061 0.658 0.574 0.502 0.707 1.345 0.461 2.039 -0.295 0.831 -1.138 1.27 -1.947 1.48 -1.175 0.306 -2.389 0.328 -3.594 0.318 -0.122 0.423 -0.112 0.864 -0.088 1.299 0.033 0.603 0.375 1.246 1.01 1.381 0.754 0.161 1.532 0.033 2.287 -0.088 0.369 -0.059 0.872 -0.548 1.123 -0.244 0.24 0.29 -0.004 0.836 -0.289 1.055 -0.442 0.339 -1.044 0.39 -1.592 0.457 -0.734 0.089 -1.491 0.072 -2.215 -0.098 -0.924 -0.217 -1.646 -1.047 -1.729 -1.994 -0.14 -1.597 0.226 -3.275 1.172 -4.584 0.76 -1.053 2.038 -1.686 3.34 -1.68 z m -0.084 1.1 c -0.557 0.015 -1.102 0.176 -1.549 0.504 -0.594 0.436 -0.919 1.154 -1.131 1.844 1.01 -0.008 2.033 0.036 3.01 -0.266 0.556 -0.171 1.082 -0.711 0.941 -1.318 -0.128 -0.556 -0.751 -0.778 -1.273 -0.764 z" style="fill:#000;opacity:0.1;fill-opacity:1;stroke:none"/>
 <g>
  <g>
   <!-- color: #eea53a -->
  </g>
 </g>
 <g>
  <path d="m 40.03 7.531 c 3.712 4.084 5.969 9.514 5.969 15.469 0 12.703 -10.297 23 -23 23 c -5.954 0 -11.384 -2.256 -15.469 -5.969 4.178 4.291 10.01 6.969 16.469 6.969 c 12.703 0 23 -10.298 23 -23 0 -6.462 -2.677 -12.291 -6.969 -16.469 z" style="opacity:0.1"/>
 </g>
 <g>
  <path d="M 24 18 A 7 7 0 0 0 17 25 A 7 7 0 0 0 24 32 A 7 7 0 0 0 31 25 A 7 7 0 0 0 24 18 z M 24.969 20.867 C 25.703 20.871 26.463 21.03 27.03 21.525 C 27.604 22.03 27.736 22.871 27.49 23.564 C 27.2 24.396 26.352 24.834 25.543 25.04 C 24.368 25.351 23.15 25.373 21.949 25.363 C 21.827 25.786 21.837 26.23 21.861 26.662 C 21.895 27.26 22.24 27.908 22.871 28.04 C 23.626 28.2 24.403 28.08 25.16 27.955 C 25.528 27.896 26.03 27.407 26.28 27.711 C 26.521 28 26.28 28.547 25.992 28.766 C 25.55 29.1 24.948 29.16 24.4 29.22 C 23.666 29.31 22.909 29.29 22.19 29.13 C 21.261 28.908 20.54 28.08 20.457 27.13 C 20.317 25.534 20.683 23.856 21.629 22.547 C 22.389 21.494 23.667 20.86 24.969 20.867 z M 24.885 21.967 C 24.328 21.982 23.783 22.14 23.336 22.471 C 22.742 22.907 22.417 23.624 22.21 24.314 C 23.21 24.306 24.24 24.35 25.22 24.05 C 25.773 23.878 26.298 23.338 26.16 22.73 C 26.03 22.17 25.407 21.953 24.885 21.967 z" style="fill:#f9f9f9;opacity:1;fill-opacity:1;stroke:none"/>
  <circle r="3" cy="13" cx="24" style="fill:#f9f9f9;opacity:1;fill-opacity:1;stroke:none"/>
  <rect y="14" x="23" height="6" width="2" style="fill:#f9f9f9;opacity:1;fill-opacity:1;stroke:none"/>
  <circle r="3" cy="12.474" cx="24.304" transform="matrix(-0.5,-0.8660254,0.8660254,-0.5,14.349365,58.28461)" style="fill:#f9f9f9;opacity:1;fill-opacity:1;stroke:none"/>
  <circle cx="23.696" cy="12.474" r="3" transform="matrix(-0.5,0.8660254,-0.8660254,-0.5,57.650635,16.715391)" style="fill:#f9f9f9;opacity:1;fill-opacity:1;stroke:none"/>
  <path d="m 19 26.59 l -6.479 3.533 l 0.957 1.754 l 5.521 -3.01 l 0 -2.275 z m 10 0 l 0 2.275 l 5.521 3.01 l 0.957 -1.754 l -6.479 -3.533 z" mix-blend-mode="normal" isolation="auto" white-space="normal" solid-opacity="1" solid-color="#000000" style="visibility:visible;shape-rendering:auto;color-interpolation-filters:linearRGB;fill:#f9f9f9;opacity:1;image-rendering:auto;fill-opacity:1;stroke:none;display:inline;color:#000;fill-rule:evenodd;color-rendering:auto;color-interpolation:sRGB"/>
 </g>
</svg>
